tools/download-figma-icons/icons/outlined-medium/vacation.svg

<svg width="24" height="24" viewBox="0 0 24 24" fill="none" xmlns="http://www.w3.org/2000/svg">
<path fill-rule="evenodd" clip-rule="evenodd" d="M18.75 2.25C19.1647 2.25 19.5 1.91475 19.5 1.5V0.75C19.5 0.33525 19.1647 0 18.75 0C18.3353 0 18 0.33525 18 0.75V1.5C18 1.91475 18.3353 2.25 18.75 2.25ZM20.7993 21.6421C21.2904 21.0543 21.9623 20.25 23.25 20.25C23.6647 20.25 24 20.5853 24 21C24 21.4148 23.6647 21.75 23.25 21.75C22.6898 21.75 22.419 22.0433 21.951 22.6058L21.9492 22.608C21.4581 23.1958 20.7862 24 19.4985 24C18.2108 24 17.5397 23.1967 17.0487 22.609L17.046 22.6058C16.578 22.0433 16.3065 21.75 15.7463 21.75C15.1868 21.75 14.9167 22.0433 14.4487 22.605L14.4471 22.6071C13.956 23.1956 13.2848 24 11.997 24C10.7091 24 10.0379 23.1954 9.54749 22.6076L9.546 22.6058C9.078 22.0433 8.80725 21.75 8.247 21.75C7.6875 21.75 7.4175 22.0433 6.9495 22.605L6.94781 22.6071C6.45671 23.1956 5.78552 24 4.49775 24C3.21232 24 2.54195 23.1976 2.05101 22.61L2.0475 22.6058C1.5795 22.0433 1.3095 21.75 0.75 21.75C0.33525 21.75 0 21.4148 0 21C0 20.5853 0.33525 20.25 0.75 20.25C0.93225 20.25 1.09875 20.2695 1.25775 20.2988C0.8595 17.2493 0.2445 9.52878 3.5595 5.88154C2.727 4.83453 1.002 5.21178 0.92175 5.23053C0.51525 5.32428 0.1155 5.07304 0.021 4.67103C-0.0735 4.26828 0.174 3.86628 0.57675 3.77028C1.45575 3.56028 3.04875 3.53103 4.1955 4.41078C4.1985 3.52654 3.43275 2.94379 3.324 2.86729C2.98575 2.63104 2.90025 2.16454 3.135 1.82554C3.36825 1.48579 3.82875 1.39729 4.17225 1.63054C4.76325 2.03254 5.607 2.96328 5.70075 4.18353C7.0605 3.07353 8.87625 3.00304 8.97825 3.00003C9.40425 3.00229 9.73725 3.31429 9.75 3.72829C9.762 4.14153 9.43725 4.48654 9.024 4.49928C9.00225 4.50003 8.16225 4.54204 7.33875 4.92528C8.38275 5.18553 9.174 5.79003 9.57525 6.26853C9.84075 6.58578 9.79875 7.05903 9.4815 7.32528C9.34125 7.44303 9.17025 7.50003 9.00075 7.50003C8.78775 7.50003 8.57625 7.41003 8.42775 7.23453C8.33025 7.12203 7.71075 6.45603 6.69675 6.31803C7.8555 7.57353 8.217 9.50028 8.238 9.61728C8.3115 10.0245 8.04075 10.4138 7.6335 10.4873C7.5885 10.4955 7.5435 10.4993 7.49925 10.4993C7.14375 10.4993 6.828 10.2458 6.762 9.88354C6.75675 9.85579 6.23025 7.20303 4.76175 6.79803C1.06232 10.634 2.88655 21.0817 2.92309 21.2909L2.9235 21.2933C2.92478 21.2988 2.92412 21.3046 2.92345 21.3105C2.92294 21.315 2.92243 21.3195 2.92275 21.324C3.02175 21.4335 3.1155 21.543 3.201 21.645C3.393 21.876 3.55125 22.0493 3.71025 22.188C3.57375 20.817 3.33 16.7288 4.89225 14.4195C4.4535 14.262 3.95325 14.2373 3.7875 14.2493C3.36 14.2785 3.02175 13.9515 3.00075 13.5375C2.9805 13.1243 3.2985 12.7718 3.7125 12.7508L3.7133 12.7508C3.84795 12.7477 4.70493 12.7282 5.53875 13.0665C5.60093 12.7808 5.40083 12.4534 5.39344 12.4413L5.39325 12.441C5.1495 12.1058 5.2245 11.637 5.559 11.3933C5.895 11.1503 6.363 11.2238 6.60675 11.559C6.66975 11.6453 7.10175 12.285 7.053 13.0823C8.12175 12.7703 9.08025 13.2885 9.519 13.7085C9.81825 13.995 9.828 14.4705 9.5415 14.769C9.39375 14.922 9.19725 15 9 15C8.8155 15 8.631 14.9325 8.48625 14.7968C8.37675 14.6963 8.0805 14.4758 7.69275 14.4945C8.0685 15.048 8.25 15.7868 8.25 16.5C8.25 16.9148 7.91475 17.25 7.5 17.25C7.086 17.25 6.7515 16.9155 6.75 16.5023C6.74925 16.4783 6.70875 15.333 6.2055 15.141C4.93275 16.839 5.04375 20.6408 5.226 22.2428C5.406 22.1003 5.58 21.9045 5.79675 21.6443L5.79824 21.6425C6.28861 21.0547 6.95981 20.25 8.247 20.25C9.53392 20.25 10.2051 21.0534 10.6961 21.6411L10.6988 21.6443C11.1667 22.2068 11.4368 22.5 11.997 22.5C12.5573 22.5 12.828 22.2068 13.296 21.6443L13.2975 21.6425C13.7879 21.0546 14.4591 20.25 15.7463 20.25C17.0346 20.25 17.7059 21.0545 18.197 21.6431L18.198 21.6443C18.6667 22.2068 18.9375 22.5 19.4985 22.5C20.0588 22.5 20.3295 22.2068 20.7975 21.6443L20.7993 21.6421ZM19.5 5.25C19.5 4.836 19.164 4.5 18.75 4.5C18.336 4.5 18 4.836 18 5.25C18 5.664 18.336 6 18.75 6C19.164 6 19.5 5.664 19.5 5.25ZM21 5.25C21 6.4905 19.9905 7.5 18.75 7.5C17.5095 7.5 16.5 6.4905 16.5 5.25C16.5 4.0095 17.5095 3 18.75 3C19.9905 3 21 4.0095 21 5.25ZM16.0986 3.34863C15.9066 3.34863 15.7146 3.27513 15.5683 3.12888L15.0381 2.59863C14.7448 2.30538 14.7448 1.83138 15.0381 1.53813C15.3313 1.24488 15.8053 1.24488 16.0986 1.53813L16.6288 2.06838C16.9221 2.36163 16.9221 2.83563 16.6288 3.12888C16.4826 3.27513 16.2906 3.34863 16.0986 3.34863ZM14.25 6H15C15.4148 6 15.75 5.66475 15.75 5.25C15.75 4.83525 15.4148 4.5 15 4.5H14.25C13.8352 4.5 13.5 4.83525 13.5 5.25C13.5 5.66475 13.8352 6 14.25 6ZM15.0381 7.90138L15.5683 7.37113C15.8616 7.07788 16.3356 7.07788 16.6288 7.37113C16.9221 7.66438 16.9221 8.13838 16.6288 8.43163L16.0986 8.96188C15.9523 9.10813 15.7603 9.18163 15.5683 9.18163C15.3763 9.18163 15.1843 9.10813 15.0381 8.96188C14.7448 8.66863 14.7448 8.19463 15.0381 7.90138ZM17.9202 9V9.75C17.9202 10.1648 18.2554 10.5 18.6702 10.5C19.0849 10.5 19.4202 10.1648 19.4202 9.75V9C19.4202 8.58525 19.0849 8.25 18.6702 8.25C18.2554 8.25 17.9202 8.58525 17.9202 9ZM20.8155 7.42751C21.1088 7.13426 21.5828 7.13426 21.876 7.42751L22.4063 7.95776C22.6995 8.25101 22.6995 8.72501 22.4063 9.01826C22.26 9.16451 22.068 9.23801 21.876 9.23801C21.684 9.23801 21.492 9.16451 21.3458 9.01826L20.8155 8.48801C20.5223 8.19476 20.5223 7.72076 20.8155 7.42751ZM21.75 5.25C21.75 5.66475 22.0853 6 22.5 6H23.25C23.6647 6 24 5.66475 24 5.25C24 4.83525 23.6647 4.5 23.25 4.5H22.5C22.0853 4.5 21.75 4.83525 21.75 5.25ZM21.9316 3.12885C21.7854 3.2751 21.5934 3.3486 21.4014 3.3486C21.2094 3.3486 21.0174 3.2751 20.8711 3.12885C20.5779 2.8356 20.5779 2.3616 20.8711 2.06835L21.4014 1.5381C21.6946 1.24485 22.1686 1.24485 22.4619 1.5381C22.7551 1.83135 22.7551 2.30535 22.4619 2.5986L21.9316 3.12885Z" fill="black"/>
</svg>

<svg width="24" height="24" viewBox="0 0 24 24" fill="none" xmlns="http://www.w3.org/2000/svg"><path fill-rule="evenodd" clip-rule="evenodd" d="M18.75 2.25a.75.75 0 0 0 .75-.75V.75a.75.75 0 1 0-1.5 0v.75c0 .415.335.75.75.75Zm2.05 19.392c.49-.588 1.162-1.392 2.45-1.392a.75.75 0 1 1 0 1.5c-.56 0-.831.293-1.299.856l-.002.002C21.46 23.196 20.786 24 19.5 24c-1.288 0-1.96-.803-2.45-1.391l-.003-.003c-.468-.563-.74-.856-1.3-.856s-.83.293-1.297.855l-.002.002c-.491.589-1.162 1.393-2.45 1.393-1.288 0-1.96-.805-2.45-1.392l-.001-.002c-.468-.563-.739-.856-1.299-.856-.56 0-.83.293-1.298.855l-.001.002C6.457 23.196 5.786 24 4.498 24c-1.286 0-1.956-.802-2.447-1.39l-.004-.004c-.468-.563-.738-.856-1.297-.856a.75.75 0 1 1 0-1.5c.182 0 .349.02.508.049C.86 17.249.244 9.529 3.559 5.882c-.832-1.047-2.557-.67-2.637-.651a.75.75 0 0 1-.345-1.46c.879-.21 2.472-.24 3.619.64.003-.884-.763-1.467-.872-1.544a.751.751 0 0 1 .848-1.236c.591.402 1.435 1.332 1.529 2.553C7.06 3.074 8.876 3.003 8.978 3c.426.002.76.314.772.728a.75.75 0 0 1-.726.771 5.014 5.014 0 0 0-1.685.426c1.044.26 1.835.865 2.236 1.344a.751.751 0 0 1-1.147.966 2.928 2.928 0 0 0-1.731-.917c1.159 1.256 1.52 3.182 1.541 3.3a.749.749 0 0 1-1.476.266c-.005-.028-.532-2.681-2-3.086-3.7 3.836-1.875 14.284-1.839 14.493v.002a.037.037 0 0 1 0 .018v.013c.099.11.192.219.278.321.192.231.35.404.51.543-.137-1.371-.381-5.46 1.181-7.768a3.202 3.202 0 0 0-1.105-.17.737.737 0 0 1-.786-.713.75.75 0 0 1 .712-.786c.135-.003.992-.023 1.826.316.062-.286-.138-.614-.146-.626a.75.75 0 0 1 1.214-.882c.063.086.495.726.446 1.523 1.069-.312 2.027.207 2.466.627a.75.75 0 0 1-1.033 1.088c-.11-.1-.405-.321-.793-.303.376.554.557 1.293.557 2.006a.75.75 0 0 1-1.5.002c0-.024-.041-1.169-.545-1.361-1.272 1.698-1.161 5.5-.979 7.102.18-.143.354-.338.57-.599l.002-.002c.49-.587 1.162-1.392 2.449-1.392s1.958.803 2.45 1.391l.002.003c.468.563.738.856 1.298.856s.831-.293 1.299-.856l.002-.002c.49-.587 1.161-1.392 2.448-1.392 1.289 0 1.96.805 2.451 1.393l.001.001c.469.563.74.856 1.3.856s.831-.293 1.3-.856l.001-.002ZM19.5 5.25a.75.75 0 1 0-1.5 0 .75.75 0 0 0 1.5 0Zm1.5 0c0 1.24-1.01 2.25-2.25 2.25S16.5 6.49 16.5 5.25 17.51 3 18.75 3 21 4.01 21 5.25Zm-4.901-1.901a.748.748 0 0 1-.53-.22l-.53-.53a.75.75 0 1 1 1.06-1.06l.53.53a.75.75 0 0 1-.53 1.28ZM14.25 6H15a.75.75 0 1 0 0-1.5h-.75a.75.75 0 1 0 0 1.5Zm.788 1.901.53-.53a.75.75 0 1 1 1.06 1.06l-.53.53a.748.748 0 0 1-1.06 0 .75.75 0 0 1 0-1.06ZM17.92 9v.75a.75.75 0 1 0 1.5 0V9a.75.75 0 1 0-1.5 0Zm2.895-1.572a.75.75 0 0 1 1.061 0l.53.53a.75.75 0 1 1-1.06 1.06l-.53-.53a.75.75 0 0 1 0-1.06Zm.935-2.178c0 .415.335.75.75.75h.75a.75.75 0 1 0 0-1.5h-.75a.75.75 0 0 0-.75.75Zm.182-2.121a.748.748 0 0 1-1.06 0 .75.75 0 0 1 0-1.06l.53-.53a.75.75 0 1 1 1.06 1.06l-.53.53Z" fill="currentColor"/></svg>
